build/img/icons/house.svg

<svg width="75" height="72" fill="none" xmlns="http://www.w3.org/2000/svg"><path fill-rule="evenodd" clip-rule="evenodd" d="M72.771 39.253l2.076-2.068-9.908-9.865V0H51.127v13.567L37.5 0 .152 37.185l2.077 2.068 7.832-7.795v37.618H6.124V72h63.875v-2.924H64.94V31.458l7.831 7.795zM62.002 69.076H12.999V28.534L37.5 4.149l24.502 24.385v40.542zm-7.938-52.584l7.938 7.902V2.924h-7.938v13.568z" fill="#81B3D2"/></svg>H54.064V16.492Z" fill="#81B3D2"/>
</svg>

<svg width="75" height="72" viewBox="0 0 75 72" fill="none" xmlns="http://www.w3.org/2000/svg">
<path fill-rule="evenodd" clip-rule="evenodd" d="M72.771 39.253L74.847 37.185L64.939 27.32V0H51.127V13.567L37.5 0L0.151993 37.185L2.22899 39.253L10.061 31.458V69.076H6.12399V72H69.999V69.076H64.94V31.458L72.771 39.253ZM62.002 69.076H12.999V28.534L37.5 4.149L62.002 28.534V69.076ZM54.064 16.492L62.002 24.394V2.924H54.064V16.492Z" fill="#81B3D2"/>
</svg>
